X: 1
T: Leroy's waltz
C: Larry Unger 2001
R: waltz
S: Audrey Knuth 2021-10-25
Z: 2021 John Chambers <jc:trillian.mit.edu>
M: 3/4
L: 1/8
K: A
% - - - - -
C EF |\
"A"A3 c AF | E2 EF AB | "D7"B=c AF AF | =cA F2 EF |\
"A"A3 c AF | E2 EF AF | "E7"E4 F2 | E3 C EF |
"A"A3 c AF | E2 EF AB | "D7"B=c AF AF | =cA F2 EF |\
"A"A2 c2 AF | "E7"E2 CE FB | "A"A6- | A4 z2 |]
[|\
"A"c2 e2 cA | "D7"=c6 | "A"ce fe cA | "D7"F6 |\
"A"EF AB ce | =gf eg fe | "E7"e6- | e4 e=g ||
"A"(3a=ge (3age (3age | =g3 a ge | "D7"f2 =cA cf | =c6 |\
"A"e=g ag eA | "E7"=c2 c2 AF | "A"A6- | A3 |]
